proprietary/assets/icons/gebouwonderdelen/persoon-in-lift-2.svg

<svg enable-background="new 0 0 64 64" viewBox="0 0 64 64" xmlns="http://www.w3.org/2000/svg"><path d="m0 0h64v64h-64z" fill="none"/><path d="m29.69 17.64c0-2.37-1.18-3.64-3.19-3.64-2.1 0-3.19 1.46-3.19 3.64 0 2.19 1.18 3.46 3.19 3.46 2 .01 3.19-1.45 3.19-3.46z"/><path d="m31.6 38.96c.91 0 2.37-.55 2.55-2.55 0-5.65.27-12.66-4.01-13.67-2.19-.55-5.19-.55-7.29 0-4.19 1-4.01 8.02-4.01 13.76.18 2 1.64 2.55 2.55 2.55 0-.09 0-5.01 0-5.28 0-2.46.46-5.1.73-6.01.09-.27.27-.18.27-.18v10.93 16.49s3.01 0 3.28-3.37c0 0 .46-12.76.46-12.85 0-.18.09-.36.36-.36s.36.18.36.36.46 12.76.46 12.76c.19 3.46 3.29 3.46 3.29 3.46v-16.58-10.94s.18-.09.27.18c.27.82.73 3.46.73 5.92z"/><circle cx="44.5" cy="17.5" r="1.5"/><circle cx="44.5" cy="22.5" r="1.5"/><circle cx="44.5" cy="27.5" r="1.5"/><path d="m49 48.81v8.19h-37v-50h37v23.19c1.14-1.02 2.86-1.02 4 0v-25.19c0-1.1-.9-2-2-2h-41c-1.1 0-2 .9-2 2v54c0 1.1.9 2 2 2h41c1.1 0 2-.9 2-2v-10.19c-.57.51-1.28.78-2 .78s-1.43-.27-2-.78z"/><path d="m50.29 31.71-4.59 4.59c-.62.62-.18 1.7.71 1.7h9.17c.89 0 1.34-1.08.71-1.71l-4.59-4.59c-.38-.38-1.02-.38-1.41.01z"/><path d="m55.59 41h-9.17c-.89 0-1.34 1.08-.71 1.71l4.59 4.59c.39.39 1.02.39 1.41 0l4.59-4.59c.62-.63.18-1.71-.71-1.71z"/></svg>

<?xml version="1.0" encoding="utf-8"?>
<!-- Generator: Adobe Illustrator 24.1.3, SVG Export Plug-In . SVG Version: 6.00 Build 0)  -->
<svg version="1.1" xmlns="http://www.w3.org/2000/svg" xmlns:xlink="http://www.w3.org/1999/xlink" x="0px" y="0px"
	 viewBox="0 0 64 64" style="enable-background:new 0 0 64 64;" xml:space="preserve">
<style type="text/css">
	.st0{fill:none;}
</style>
<g id="Box">
	<rect class="st0" width="64" height="64"/>
</g>
<g id="Icon">
	<g>
		<path d="M29.69,17.64c0-2.37-1.18-3.64-3.19-3.64c-2.1,0-3.19,1.46-3.19,3.64c0,2.19,1.18,3.46,3.19,3.46
			C28.5,21.11,29.69,19.65,29.69,17.64z"/>
		<path d="M31.6,38.96c0.91,0,2.37-0.55,2.55-2.55c0-5.65,0.27-12.66-4.01-13.67c-2.19-0.55-5.19-0.55-7.29,0
			c-4.19,1-4.01,8.02-4.01,13.76c0.18,2,1.64,2.55,2.55,2.55c0-0.09,0-5.01,0-5.28c0-2.46,0.46-5.1,0.73-6.01
			c0.09-0.27,0.27-0.18,0.27-0.18v10.93V55c0,0,3.01,0,3.28-3.37c0,0,0.46-12.76,0.46-12.85c0-0.18,0.09-0.36,0.36-0.36
			c0.27,0,0.36,0.18,0.36,0.36c0,0.18,0.46,12.76,0.46,12.76C27.5,55,30.6,55,30.6,55V38.42V27.48c0,0,0.18-0.09,0.27,0.18
			c0.27,0.82,0.73,3.46,0.73,5.92C31.6,34.04,31.6,38.96,31.6,38.96z"/>
		<circle cx="44.5" cy="17.5" r="1.5"/>
		<circle cx="44.5" cy="22.5" r="1.5"/>
		<circle cx="44.5" cy="27.5" r="1.5"/>
		<path d="M49,48.81V57H12V7h37v23.19c1.14-1.02,2.86-1.02,4,0V5c0-1.1-0.9-2-2-2H10C8.9,3,8,3.9,8,5v54c0,1.1,0.9,2,2,2h41
			c1.1,0,2-0.9,2-2V48.81c-0.57,0.51-1.28,0.78-2,0.78S49.57,49.32,49,48.81z"/>
		<path d="M50.29,31.71l-4.59,4.59C45.08,36.92,45.52,38,46.41,38h9.17c0.89,0,1.34-1.08,0.71-1.71l-4.59-4.59
			C51.32,31.32,50.68,31.32,50.29,31.71z"/>
		<path d="M55.59,41h-9.17c-0.89,0-1.34,1.08-0.71,1.71l4.59,4.59c0.39,0.39,1.02,0.39,1.41,0l4.59-4.59
			C56.92,42.08,56.48,41,55.59,41z"/>
	</g>
</g>
</svg>
